X:1
T:Give Him the Glory
T:Elisha Albright Hoffman, 1893
T:Give Him the Glory
T:Public Domain
T:Public Domain
C:Elisha Albright Hoffman, 1893
Z:Public Domain
%%score ( 1 2 ) ( 3 4 )
L:1/8
M:4/4
K:Eb
V:1 treble 
V:2 treble 
V:3 bass 
V:4 bass 
V:1
 E[EF] | [EG]2 [EG][EG] ([EG][DF])([EG][DA]) | [EB]4 [EG]2 [EB][EB] | [Ec]2 [Ec]2 [EB]2 [EG]2 | %4
w: 1.~It was|at the feet of * Je- *|sus, O the hap-|py, hap- py day!|
w: 2.~It was|at the feet of * Je- *|sus, Where I found|such per- fect rest,|
w: 3.~It was|at the feet of * Je- *|sus, Where I brought|my guilt and sin,|
 [DF]6 E[EF] | [EG]2 [EG]2 (GF)[EG][DA] | [EB]4 [EG]2 E[EG] | [EB]3 [FA] [EG]2 [DF]2 | [B,E]6 || %9
w: That my soul|peace in be- * liev- ing,|my sins were washed|way. * * *||
w: Where the light|dawned on my * spir- it,|my soul was tru-|blest. * * *||
w: That he can-|all my trans- * gress- ions|sal- va- tion en-|in. * * *||
"^Refrain" [Ge][Gd] | [Ac]2 [Ac]2 (ce)([Bd][Ac]) | [GB]4 [EG]2 [Ec][EB] | %12
w: |||
w: |||
w: |||
 [DA]2 [FA]2 ([FA][GB])([GB][FA]) | [EG]6 [Ge][Gd] | [Ac]2 [Ac]2 [Ac][Ae][Bd][Ac] | %15
w: |||
w: |||
w: |||
 [GB]4 [EG]2 E[EG] | [EB]3 [FA] [EG]2 [DF]2 | E6 |] %18
w: |||
w: |||
w: |||
V:2
 E x | x8 | x8 | x8 | x6 E x | x4 E2 x2 | x6 E x | x8 | x6 || x2 | x4 A2 x2 | x8 | x8 | x8 | x8 | %15
w: down||||found|And|a-|||||||||
w: down||||first|And|ly|||||||||
w: down||||celled|And|tered|||||||||
 x6 E x | x8 | E6 |] %18
w: |||
w: |||
w: |||
V:3
 [E,G,][E,A,] | [E,B,]2 [E,B,][G,B,] (B,A,)(G,F,) | [E,G,]4 [E,B,]2 [E,G,][E,G,] | %3
w: ~ ~|~ ~ ~ ~ * ~ *|~ ~ ~ ~|
 [A,,A,]2 [A,,A,]2 [E,G,]2 [E,B,]2 | [B,,B,]6 [E,G,][E,A,] | [E,B,]2 (E,G,) (B,A,)[G,B,][F,B,] | %6
w: ~ ~ ~ ~|~ ~ ~|~ ~ * ~ * ~ ~|
 [E,G,]4 [E,B,]2 [E,G,][E,B,] | [G,B,]3 [A,C] B,2 [B,,A,]2 | [E,G,]6 || [E,B,][E,B,] | %10
w: ~ ~ ~ ~|~ Let me tell|old,|old sto-|
 A,2 [A,E]2 (EC)(DE) | [E,E]4 [E,B,]2 [E,A,][E,G,] | [F,B,]2 [D,B,]2 [B,,B,]2 [B,,B,]2 | %13
w: ry Of His * grace *|free; For I feel|like giv- ing Him|
 [E,B,]6 [E,B,][E,B,] | A,2 [A,E]2 [A,E][A,C][A,D][A,E] | [E,E]4 [E,B,]2 [E,G,][E,B,] | %16
w: the glor- y|For His won- drous love to||
 [G,B,]3 [A,C] B,2 [B,,A,]2 | [E,G,]6 |] %18
w: ||
V:4
 x2 | x4 B,2 B,2 | x8 | x8 | x8 | x2 B,2 B,2 x2 | x8 | x4 B,2 x2 | x6 || x2 | A,2 A,2 A,2 x2 | x8 | %12
w: |~ ~||||~ ~||the|||so full and||
 x8 | x8 | A,2 x6 | x8 | x4 B,2 x2 | x6 |] %18
w: ||me.||||

